packages/ui-solid/icons/theme_28.svg

<svg width="28" height="28" viewBox="0 0 28 28" fill="none" xmlns="http://www.w3.org/2000/svg">
<path fill-rule="evenodd" clip-rule="evenodd" d="M14.1885 2.4947C14.7114 1.04337 16.6648 0.477121 17.8472 1.61822L21.7124 5.34868C22.4355 6.04656 22.6974 7.09278 22.3676 8.04777L21.9609 9.22507C21.9496 9.25793 21.9537 9.2711 21.9555 9.27692L21.9556 9.27717C21.9593 9.28898 21.9709 9.31193 21.9991 9.33557C22.0273 9.35915 22.061 9.37391 22.0932 9.37861C22.1205 9.3826 22.1562 9.38116 22.2047 9.35778C23.0162 8.96619 23.9989 9.11495 24.652 9.74528L23.965 10.4571L24.652 9.74528L25.0799 10.1582C26.2608 11.298 26.2608 13.1609 25.0799 14.3007L18.5539 20.599C18.7709 21.3164 18.5881 22.1257 18.0053 22.6881L16.7935 23.8577C15.7409 24.8736 14.0484 24.8736 12.9958 23.8577L12.2916 23.1781C11.9567 22.8548 11.2233 22.8801 10.8356 23.4135C10.0333 24.5173 8.94386 25.6805 7.66138 26.2547C7.00187 26.55 6.26224 26.702 5.48353 26.5771C4.70108 26.4515 3.96728 26.0604 3.30075 25.4171C2.6355 24.775 2.21968 24.0574 2.08547 23.2783C1.95162 22.5013 2.11573 21.7673 2.42622 21.1213C3.02696 19.8715 4.23686 18.8194 5.37426 18.0493C5.93239 17.6714 5.91681 17.0256 5.62066 16.7398L4.91658 16.0602C3.84425 15.0253 3.84425 13.3323 4.91658 12.2973L6.12844 11.1277C6.70978 10.5667 7.53736 10.3988 8.26603 10.6242L10.9759 8.00877C12.4247 6.61055 13.524 4.33902 14.1885 2.4947ZM9.85584 11.8396L17.3183 19.0418L23.7058 12.877C24.0807 12.5152 24.0807 11.9437 23.7058 11.5819L23.278 11.1689C23.2295 11.1222 23.1405 11.1031 23.0646 11.1397C21.447 11.9203 19.4455 10.4474 20.0908 8.57916L20.4974 7.40186C20.5712 7.18804 20.5179 6.94564 20.3384 6.77235L16.4731 3.04189C16.4371 3.00706 16.3669 2.97447 16.254 3.00291C16.1369 3.0324 16.0718 3.10477 16.0499 3.16536C15.3549 5.09436 14.1305 7.71395 12.3499 9.43244L9.85584 11.8396ZM7.62337 12.5059C7.57172 12.5059 7.53026 12.5246 7.50247 12.5514L6.2906 13.721C6.02434 13.978 6.02434 14.3796 6.2906 14.6366L6.99469 15.3161C8.37463 16.6479 7.86589 18.7518 6.48352 19.6877C5.43473 20.3978 4.57986 21.208 4.20948 21.9785C4.03441 22.3427 3.98637 22.6583 4.03532 22.9424C4.0839 23.2244 4.24582 23.5794 4.67477 23.9934C5.10243 24.4062 5.47998 24.5726 5.797 24.6235C6.11775 24.675 6.4657 24.6222 6.85285 24.4489C7.66368 24.0858 8.5039 23.2562 9.23517 22.2502C10.2088 20.9107 12.3245 20.46 13.6656 21.7544L14.3698 22.434C14.6558 22.71 15.1335 22.71 15.4195 22.434L16.6313 21.2645C16.6573 21.2393 16.6637 21.2157 16.6637 21.1965C16.6637 21.1773 16.6573 21.1537 16.6313 21.1285L7.74427 12.5514C7.71647 12.5246 7.67501 12.5059 7.62337 12.5059Z" fill="#007AFF"/>
</svg>

<svg xmlns="http://www.w3.org/2000/svg" width="28" height="28" fill="none"><path fill="currentColor" fill-rule="evenodd" d="M14.189 2.495c.522-1.452 2.476-2.018 3.658-.877l3.865 3.73c.724.699.985 1.745.656 2.7l-.407 1.177c-.011.033-.007.046-.005.052a.13.13 0 0 0 .043.059.2.2 0 0 0 .094.043.2.2 0 0 0 .112-.021 2.17 2.17 0 0 1 2.447.387l-.687.712.687-.712.428.413a2.865 2.865 0 0 1 0 4.143l-6.526 6.298a2.07 2.07 0 0 1-.549 2.09l-1.211 1.169a2.747 2.747 0 0 1-3.798 0l-.704-.68c-.335-.323-1.069-.298-1.456.235-.803 1.104-1.892 2.267-3.175 2.842-.66.295-1.399.447-2.177.322-.783-.126-1.517-.517-2.183-1.16s-1.081-1.36-1.216-2.139c-.133-.777.03-1.51.341-2.157.601-1.25 1.81-2.302 2.948-3.072.558-.378.543-1.023.247-1.31l-.704-.679a2.603 2.603 0 0 1 0-3.763l1.211-1.17a2.16 2.16 0 0 1 2.138-.503l2.71-2.615c1.449-1.398 2.548-3.67 3.212-5.514M9.856 11.84l7.462 7.202 6.388-6.165a.886.886 0 0 0 0-1.295l-.428-.413a.2.2 0 0 0-.213-.03c-1.618.781-3.62-.692-2.974-2.56l.406-1.177a.6.6 0 0 0-.159-.63l-3.865-3.73c-.036-.035-.106-.068-.219-.04-.117.03-.182.103-.204.163-.695 1.93-1.92 4.549-3.7 6.267zm-2.233.666a.17.17 0 0 0-.12.045l-1.212 1.17a.625.625 0 0 0 0 .916l.704.68c1.38 1.33.87 3.435-.511 4.37-1.05.71-1.904 1.521-2.275 2.291-.175.365-.223.68-.174.964.049.282.21.637.64 1.051.427.413.805.58 1.122.63.32.052.669 0 1.056-.174.81-.363 1.65-1.193 2.382-2.199.974-1.34 3.09-1.79 4.43-.496l.705.68a.77.77 0 0 0 1.05 0l1.211-1.17c.026-.025.033-.048.033-.067s-.007-.043-.033-.069l-8.887-8.577a.17.17 0 0 0-.12-.045" clip-rule="evenodd"/></svg>
